storage/app/icons/phosphoricons/thin/spinner-thin.svg

<svg xmlns="http://www.w3.org/2000/svg" fill="currentColor" viewBox="0 0 256 256"><path d="M132 32v32a4 4 0 0 1-8 0V32a4 4 0 0 1 8 0m41.25 54.75a4 4 0 0 0 2.83-1.18L198.71 63a4 4 0 0 0-5.66-5.66l-22.62 22.58a4 4 0 0 0 2.82 6.83M224 124h-32a4 4 0 0 0 0 8h32a4 4 0 0 0 0-8m-47.92 46.43a4 4 0 1 0-5.65 5.65l22.62 22.63a4 4 0 0 0 5.66-5.66ZM128 188a4 4 0 0 0-4 4v32a4 4 0 0 0 8 0v-32a4 4 0 0 0-4-4m-48.08-17.57-22.63 22.62a4 4 0 0 0 5.71 5.66l22.62-22.63a4 4 0 1 0-5.65-5.65ZM68 128a4 4 0 0 0-4-4H32a4 4 0 0 0 0 8h32a4 4 0 0 0 4-4m-5-70.71A4 4 0 0 0 57.29 63l22.63 22.57a4 4 0 1 0 5.65-5.65Z"/></svg>

<svg xmlns="http://www.w3.org/2000/svg" viewBox="0 0 256 256" fill="currentColor"><path d="M132,32V64a4,4,0,0,1-8,0V32a4,4,0,0,1,8,0Zm41.25,54.75a4,4,0,0,0,2.83-1.18L198.71,63a4,4,0,0,0-5.66-5.66L170.43,79.92a4,4,0,0,0,2.82,6.83ZM224,124H192a4,4,0,0,0,0,8h32a4,4,0,0,0,0-8Zm-47.92,46.43a4,4,0,1,0-5.65,5.65l22.62,22.63a4,4,0,0,0,5.66-5.66ZM128,188a4,4,0,0,0-4,4v32a4,4,0,0,0,8,0V192A4,4,0,0,0,128,188ZM79.92,170.43,57.29,193.05A4,4,0,0,0,63,198.71l22.62-22.63a4,4,0,1,0-5.65-5.65ZM68,128a4,4,0,0,0-4-4H32a4,4,0,0,0,0,8H64A4,4,0,0,0,68,128ZM63,57.29A4,4,0,0,0,57.29,63L79.92,85.57a4,4,0,1,0,5.65-5.65Z"/></svg>
